src/pos-icons/flag-plus-outline.svg

<svg height="24" viewBox="0 0 24 24" width="24" xmlns="http://www.w3.org/2000/svg"><path d="m13 16-.4-2h-5.6v7h-2v-17h9l.4 2h5.6v7.09c-.33-.05-.66-.09-1-.09s-.67.04-1 .09v-5.09h-5.24l-.4-2h-5.36v6h7.24l.4 2h1.05c-.77.5-1.42 1.2-1.88 2zm5-1v3h-3v2h3v3h2v-3h3v-2h-3v-3z"/></svg>

<?xml version="1.0" encoding="UTF-8"?><!DOCTYPE svg PUBLIC "-//W3C//DTD SVG 1.1//EN" "http://www.w3.org/Graphics/SVG/1.1/DTD/svg11.dtd"><svg xmlns="http://www.w3.org/2000/svg" xmlns:xlink="http://www.w3.org/1999/xlink" version="1.1" id="mdi-flag-plus-outline" width="24" height="24" viewBox="0 0 24 24"><path d="M13 16L12.6 14H7V21H5V4H14L14.4 6H20V13.09C19.67 13.04 19.34 13 19 13C18.66 13 18.33 13.04 18 13.09V8H12.76L12.36 6H7V12H14.24L14.64 14H15.69C14.92 14.5 14.27 15.2 13.81 16H13M18 15V18H15V20H18V23H20V20H23V18H20V15H18Z" /></svg>
